X:1
T:Title
%%score 1 { ( 2 5 ) | ( 3 4 ) }
L:1/8
M:4/4
K:C
V:1 treble nm="Choir Aahs"
V:2 bass nm="Grand Piano"
V:5 bass 
V:3 bass 
V:4 bass 
V:1
 z4 z2[Q:1/4=92] EF | GG^FG ccG^G | A6 BA | GGAG FFGF | E6 EF | GGcd eedc | c4 A2 AA | GABc edBG | %8
[M:7/8] c-c-c- c- c3 |[M:1/4][Q:1/4=100] z2 |[M:4/4] z8 | z8 | z8 |[M:9/8] z9 | %14
[M:4/4] z8[Q:1/4=99][Q:1/4=97][Q:1/4=96] | z8[Q:1/4=94][Q:1/4=93][Q:1/4=91][Q:1/4=90][Q:1/4=88] | %16
 z8[Q:1/4=87][Q:1/4=85][Q:1/4=84][Q:1/4=82][Q:1/4=81] |[M:7/8] z7[Q:1/4=79][Q:1/4=78][Q:1/4=76] |] %18
V:2
 z8 | C,2 E2 C,2 E2 | F,,2[K:treble] F2 F2 F2 | G,,2 E2 G,,2 F2 | C,2 E2 E2 E2 | C,,2 E2 C,,2 E2 | %6
 F,,2[K:treble] F2 F2 F2 | [G,CE]4 [B,F]4 |[M:7/8] [A,CE]2 [CF]2 [CE]3 |[M:1/4] [Ec]>[Fd] | %10
[M:4/4] [Ge]>[Af] [Ge]>[Fd] [Ec]2 [EG]2 | [FA]2 [FA]2 [Ac]2 [GB]>[FA] | %12
 [EG]>[_E^F] [=EG]>[=FA] [EG]2 [CE]2 |[M:9/8] [B,D]2 [CE]- [CE] [B,D]2- [B,D][CE]>[DF] | %14
[M:4/4] [EG]>[EG] [_E^F]>[=EG] [Ec][Ec][FB][G_B] | [FA]6 [Af]>[Af] | e>e f>e e>d B>G | %17
[M:7/8] c2- [Gc-] [Fc-] [Ec]3 |] %18
V:3
 z8 | z2 [G,C]2 z2 [G,C]2 | z2 [A,C]2 [A,C]2 [A,C]2 | z2 [G,C]2 z2 [G,B,]2 | %4
 z2 [G,C]2 [G,C]2 [G,C]2 | z2 [A,C]2 z2 [_B,C]2 | z2 [A,C]2 [A,C]2 [A,C]2 | z4 G,4 | %8
[M:7/8] z2 A,2 G,3 |[M:1/4] [C,G,]>[C,G,] |[M:4/4] [C,C]>[C,C] [C,C]>[C,G,] [C,G,]2 [C,C]2 | %11
 [F,C]2 [F,C]2 [F,C]2 [F,C]>[F,C] | [C,C]>[C,C] [C,C]>[C,C] [C,C]2 [C,G,]2 | %13
[M:9/8] [G,,G,]2 [G,,G,]- [G,,G,] [G,,G,]2- [G,,G,][C,G,]>[C,G,] | %14
[M:4/4] [C,C]>[C,C] [C,C]>[C,C] [C,G,][C,G,][D,G,][E,C] | [F,C]6 [F,C]>[F,C] | %16
 [G,CG]>[G,CG] [G,CA]>[G,CG] [G,B,F]>[G,B,F] [G,DF]>[G,B,F] |[M:7/8][K:bass] z2 _B, A, G,3 |] %18
V:4
 x8 | x8 | x8 | x8 | x8 | x8 | x8 | G,,8 |[M:7/8] C,- C,3 z z2 |[M:1/4] x2 |[M:4/4] x8 | x8 | x8 | %13
[M:9/8] x9 |[M:4/4] x8 | x8 | x8 |[M:7/8][K:bass] C,-C,-C,- C,- C,3 |] %18
V:5
 x8 | x8 | x2[K:treble] x6 | x8 | x8 | x8 | x2[K:treble] x6 | x8 |[M:7/8] x7 |[M:1/4] x2 | %10
[M:4/4] x8 | x8 | x8 |[M:9/8] x9 |[M:4/4] x8 | x8 | x8 |[M:7/8] [CE]2 z z z z2 |] %18

